src/main/resources/static/css/primeicons/raw-svg/tablet.svg

<?xml version="1.0" encoding="UTF-8"?>
<svg id="tablet" xmlns="http://www.w3.org/2000/svg" viewBox="0 0 24 24">
  <path d="M18,3.25H6c-.96,0-1.75,.79-1.75,1.75v14c0,.96,.79,1.75,1.75,1.75h12c.96,0,1.75-.79,1.75-1.75V5c0-.96-.79-1.75-1.75-1.75Zm.25,15.75c0,.14-.11,.25-.25,.25H6c-.14,0-.25-.11-.25-.25V5c0-.14,.11-.25,.25-.25h12c.14,0,.25,.11,.25,.25v14Zm-5.25-3c0,.55-.45,1-1,1s-1-.45-1-1,.45-1,1-1,1,.45,1,1Z"/>
</svg>

<svg xmlns="http://www.w3.org/2000/svg" viewBox="0 0 24 24"><g id="tablet"><path d="M18,3.25H6A1.76,1.76,0,0,0,4.25,5V19A1.76,1.76,0,0,0,6,20.75H18A1.76,1.76,0,0,0,19.75,19V5A1.76,1.76,0,0,0,18,3.25ZM18.25,19a.25.25,0,0,1-.25.25H6A.25.25,0,0,1,5.75,19V5A.25.25,0,0,1,6,4.75H18a.25.25,0,0,1,.25.25Z"/><path d="M12,14.5A1.5,1.5,0,1,0,13.5,16,1.5,1.5,0,0,0,12,14.5ZM12,16v0Z"/></g></svg>
